symbols/web/alarm_on/materialsymbolsrounded/alarm_on_wght500grad200_20px.svg

<svg xmlns="http://www.w3.org/2000/svg" height="20" width="20"><path d="m9.083 10.896-.916-.917q-.355-.354-.823-.354-.469 0-.823.354-.333.333-.354.781-.021.448.333.823l1.729 1.771q.333.354.854.354.521 0 .875-.354l3.438-3.479q.354-.354.354-.833 0-.48-.354-.834-.354-.333-.802-.343-.448-.011-.823.343ZM10 19.021q-1.708 0-3.198-.646t-2.625-1.781q-1.135-1.136-1.771-2.615-.635-1.479-.635-3.187 0-1.709.635-3.198.636-1.49 1.771-2.625 1.135-1.136 2.625-1.761t3.177-.625q1.709 0 3.198.625 1.49.625 2.615 1.761 1.125 1.135 1.77 2.625.646 1.489.646 3.198 0 1.687-.646 3.177-.645 1.489-1.77 2.625-1.125 1.135-2.615 1.781-1.489.646-3.177.646Zm-.021-8.209Zm-7.312-4.77q-.334.312-.792.323-.458.01-.792-.323Q.75 5.688.75 5.24q0-.448.333-.823l2.521-2.5q.313-.334.792-.334.479 0 .812.334.334.333.323.791-.01.459-.343.813Zm14.625 0-2.5-2.521q-.334-.313-.334-.792 0-.479.334-.812.354-.355.823-.355.468 0 .802.355l2.5 2.5q.354.312.343.791-.01.48-.343.813-.355.354-.823.364-.469.011-.802-.343ZM9.979 16.583q2.396 0 4.094-1.698 1.698-1.697 1.698-4.093t-1.698-4.084q-1.698-1.687-4.094-1.687-2.396 0-4.083 1.677-1.688 1.677-1.688 4.094 0 2.416 1.677 4.104 1.677 1.687 4.094 1.687Z"/></svg>

<svg xmlns="http://www.w3.org/2000/svg" height="20" width="20"><path d="M9.083 10.896 8.167 9.979Q7.812 9.625 7.344 9.625Q6.875 9.625 6.521 9.979Q6.188 10.312 6.167 10.76Q6.146 11.208 6.5 11.583L8.229 13.354Q8.562 13.708 9.083 13.708Q9.604 13.708 9.958 13.354L13.396 9.875Q13.75 9.521 13.75 9.042Q13.75 8.562 13.396 8.208Q13.042 7.875 12.594 7.865Q12.146 7.854 11.771 8.208ZM10 19.021Q8.292 19.021 6.802 18.375Q5.312 17.729 4.177 16.594Q3.042 15.458 2.406 13.979Q1.771 12.5 1.771 10.792Q1.771 9.083 2.406 7.594Q3.042 6.104 4.177 4.969Q5.312 3.833 6.802 3.208Q8.292 2.583 9.979 2.583Q11.688 2.583 13.177 3.208Q14.667 3.833 15.792 4.969Q16.917 6.104 17.562 7.594Q18.208 9.083 18.208 10.792Q18.208 12.479 17.562 13.969Q16.917 15.458 15.792 16.594Q14.667 17.729 13.177 18.375Q11.688 19.021 10 19.021ZM9.979 10.812Q9.979 10.812 9.979 10.812Q9.979 10.812 9.979 10.812Q9.979 10.812 9.979 10.812Q9.979 10.812 9.979 10.812Q9.979 10.812 9.979 10.812Q9.979 10.812 9.979 10.812Q9.979 10.812 9.979 10.812Q9.979 10.812 9.979 10.812ZM2.667 6.042Q2.333 6.354 1.875 6.365Q1.417 6.375 1.083 6.042Q0.75 5.688 0.75 5.24Q0.75 4.792 1.083 4.417L3.604 1.917Q3.917 1.583 4.396 1.583Q4.875 1.583 5.208 1.917Q5.542 2.25 5.531 2.708Q5.521 3.167 5.188 3.521ZM17.292 6.042 14.792 3.521Q14.458 3.208 14.458 2.729Q14.458 2.25 14.792 1.917Q15.146 1.562 15.615 1.562Q16.083 1.562 16.417 1.917L18.917 4.417Q19.271 4.729 19.26 5.208Q19.25 5.688 18.917 6.021Q18.562 6.375 18.094 6.385Q17.625 6.396 17.292 6.042ZM9.979 16.583Q12.375 16.583 14.073 14.885Q15.771 13.188 15.771 10.792Q15.771 8.396 14.073 6.708Q12.375 5.021 9.979 5.021Q7.583 5.021 5.896 6.698Q4.208 8.375 4.208 10.792Q4.208 13.208 5.885 14.896Q7.562 16.583 9.979 16.583Z"/></svg>
